X: 37446
T: Sliabh Lucan, The
R: polka
M: 2/4
K: Amajor
|:ce e>f|ec BA|ef/e/ cA|BA FA/B/|
ce e>f|ec BA|ef/e/ cA|1 BA A>B:|2 BA Ae||
a2 e>e|fe cB|AB ce|fe ce|
a2 e>e|fe cB|Ae ag|f2 fg|
a2 e>e|fe cB|AB ce|fe ce|
aA gA|f/g/a e>e|f/g/a ec|BA AA/B/||

